www/img/mcc-icons/bug.svg

<svg width="45" height="45" viewBox="0 0 45 45" xmlns="http://www.w3.org/2000/svg"><g class="nc-icon-wrapper" fill="#444444"><title>bug</title><g stroke="#444444" stroke-width="1" fill="none" fill-rule="evenodd"><path d="M28 9.4V6c0-3.3-2.7-6-6-6s-6 2.7-6 6v3.4" transform="translate(-140 -523) translate(140 523) translate(.5 .5)"></path><path d="M8 22H6c-3.3 0-6-2.7-6-6v-2" transform="translate(-140 -523) translate(140 523) translate(.5 .5)"></path><path d="M8 30H6c-3.3 0-6 2.7-6 6v2" transform="translate(-140 -523) translate(140 523) translate(.5 .5)"></path><path d="M36 22h2c3.3 0 6-2.7 6-6v-2" transform="translate(-140 -523) translate(140 523) translate(.5 .5)"></path><path d="M36 30h2c3.3 0 6 2.7 6 6v2" transform="translate(-140 -523) translate(140 523) translate(.5 .5)"></path><path d="M36 30c0 7.7-6.3 14-14 14S8 37.7 8 30v-8c0-7.7 6.3-14 14-14s14 6.3 14 14v8z" transform="translate(-140 -523) translate(140 523) translate(.5 .5)"></path></g></g></svg>

<?xml version="1.0" encoding="UTF-8" standalone="no"?>
<svg width="45px" height="45px" viewBox="0 0 45 45" version="1.1" xmlns="http://www.w3.org/2000/svg" xmlns:xlink="http://www.w3.org/1999/xlink">
    <!-- Generator: Sketch 3.7.2 (28276) - http://www.bohemiancoding.com/sketch -->
    <title>bug</title>
    <desc>Created with Sketch.</desc>
    <defs></defs>
    <g id="Page-1" stroke="none" stroke-width="1" fill="none" fill-rule="evenodd">
        <g id="-Transaction-icons" transform="translate(-140.000000, -523.000000)" stroke="#9B9BAB">
            <g id="bug" transform="translate(140.000000, 523.000000)">
                <g id="Group" transform="translate(0.500000, 0.500000)">
                    <path d="M28,9.4 L28,6 C28,2.7 25.3,0 22,0 C18.7,0 16,2.7 16,6 L16,9.4" id="Shape"></path>
                    <path d="M8,22 L6,22 C2.7,22 0,19.3 0,16 L0,14" id="Shape"></path>
                    <path d="M8,30 L6,30 C2.7,30 0,32.7 0,36 L0,38" id="Shape"></path>
                    <path d="M36,22 L38,22 C41.3,22 44,19.3 44,16 L44,14" id="Shape"></path>
                    <path d="M36,30 L38,30 C41.3,30 44,32.7 44,36 L44,38" id="Shape"></path>
                    <path d="M36,30 C36,37.7 29.7,44 22,44 C14.3,44 8,37.7 8,30 L8,22 C8,14.3 14.3,8 22,8 C29.7,8 36,14.3 36,22 L36,30 L36,30 Z" id="Shape"></path>
                </g>
            </g>
        </g>
    </g>
</svg>
